X:1
T:title
M:4/4
Q:120
L:1/8
R:Reel
K:C
D4g'4 | b' ^a'c'2 ^d'4 | F4 _a'2 ^f2 |  ^c'2 _d'3 ^F _A ^E |  ^b2AD _c'2 _G _F |  ^b4 _b ^D2f' |  ^c'4 _b'3 _c' |  ^f'2 ^B ^a'2 _G ^e ^E | 